remix/Device/keyboard-box-fill.svg

<svg viewBox="0 0 24 24" xmlns="http://www.w3.org/2000/svg"><path fill="none" d="M0 0h24v24H0Z"/><path d="M3 3h18v0c.55 0 1 .44 1 1v16 0c0 .55-.45 1-1 1H3v0c-.56 0-1-.45-1-1V4v0c0-.56.44-1 1-1Zm2 4v2h2V7H5Zm0 4v2h2v-2H5Zm0 4v2h14v-2H5Zm4-4v2h2v-2H9Zm0-4v2h2V7H9Zm4 0v2h2V7h-2Zm4 0v2h2V7h-2Zm-4 4v2h2v-2h-2Zm4 0v2h2v-2h-2Z"/></svg>

<svg viewBox="0 0 24 24" fill="currentColor" xmlns="http://www.w3.org/2000/svg"><path d="M3 3H21C21.5523 3 22 3.44772 22 4V20C22 20.5523 21.5523 21 21 21H3C2.44772 21 2 20.5523 2 20V4C2 3.44772 2.44772 3 3 3ZM5 7V9H7V7H5ZM5 11V13H7V11H5ZM5 15V17H19V15H5ZM9 11V13H11V11H9ZM9 7V9H11V7H9ZM13 7V9H15V7H13ZM17 7V9H19V7H17ZM13 11V13H15V11H13ZM17 11V13H19V11H17Z"/></svg>
